X:1
T: Rob Ralston's Strathspey
C:H. Dunlop
R:Strathspey
Q: 128
K:D
M:4/4
L:1/16
|:D2|D3D d3F ((3B2A2G2) ((3F2E2D2) |C3E A,3E G4 G3E|D3D d3F ((3B2A2G2) ((3F2E2D2) |((3B,2C2D2) G3E D4 D3A,|
D3D d3F ((3B2A2G2) ((3F2E2D2) |C3E A,3E G4 G3E|((3B2A2G2) ((3F2E2D2) ((3E2D2C2) ((3B,2A,2G,2) |((3A,2B,2C2) E3C D4 D2A2|
d3d A3d F3d A3d|c3d e3f g4 f3e|d3d A3d F3d A3d|((3c2B2A2) ((3B2c2e2) d4 d3A|
d3d A3d F3d A3d|c3d e3f g4 f2e2|((3f2e2d2) ((3c2d2e2) ((3d2c2B2) ((3A2G2F2) |((3G2A2B2) d3F D4 D2:|
